X: 26523
T: Michael Turner's
R: waltz
M: 3/4
K: Gmajor
GA|B2 B2 cA|d2 d2 gf|e2 e2 ge|d2 d2 GA|
B2 B2 cA|d2 d2 cA|G2 G2 AB|G2 z2:|
|:AB|c2 cd Bc|A2 A2 Bc|d2 de cd|B2 B2 gf|
e2 e2 ge|d2 d2 GA|B2 bc AB|G2 z2:|
GF|GFGDAF|BGDCB,D|CG,CDEC|B,G,B,CDF|
GFGDAF|BGDBFC|B,DBDCD|B,2 z2:|
|:FG|AFD D DE|FGEFGA|BGD D EF|GDDC,B,D|
CG,CDEC|B,DGG,B,C|D D DE CD|B,2 z2:|

